src/components/00-materials/images-raw/Parking.svg

<svg width="96" height="96" viewBox="0 0 96 96" fill="none" xmlns="http://www.w3.org/2000/svg">
<path d="M44.5 65.1698H51.5V82.8198H44.5V65.1698ZM37 23.6798H47.4C48.9825 23.664 50.5619 23.8216 52.11 24.1498C53.444 24.4208 54.7073 24.9656 55.82 25.7498C56.876 26.5304 57.7214 27.5613 58.28 28.7498C58.9232 30.1638 59.2312 31.7072 59.18 33.2598C59.2156 34.7884 58.9081 36.3057 58.28 37.6998C57.7121 38.9299 56.8625 40.009 55.8 40.8498C54.694 41.7092 53.425 42.3352 52.07 42.6898C50.5546 43.101 48.9901 43.3028 47.42 43.2898H42.49V54.5898H37V23.6798ZM47 38.3098C51.54 38.3098 53.8067 36.6198 53.8 33.2398C53.8774 32.5359 53.7586 31.8243 53.4569 31.1837C53.1551 30.543 52.682 29.9983 52.09 29.6098C50.5044 28.843 48.7477 28.4985 46.99 28.6098H42.48V38.3098H47Z" stroke="#00008F" stroke-width="2" stroke-linecap="round" stroke-linejoin="round"/>
<path d="M67.87 13.1699H28.13C24.7445 13.1699 22 15.9144 22 19.2999V59.0399C22 62.4254 24.7445 65.1699 28.13 65.1699H67.87C71.2555 65.1699 74 62.4254 74 59.0399V19.2999C74 15.9144 71.2555 13.1699 67.87 13.1699Z" stroke="#00008F" stroke-width="2" stroke-linecap="round" stroke-linejoin="round"/>
<path d="M67 21.1699C67.5523 21.1699 68 20.7222 68 20.1699C68 19.6176 67.5523 19.1699 67 19.1699C66.4477 19.1699 66 19.6176 66 20.1699C66 20.7222 66.4477 21.1699 67 21.1699Z" stroke="#00008F" stroke-width="2" stroke-miterlimit="10"/>
<path d="M28 21.1699C28.5523 21.1699 29 20.7222 29 20.1699C29 19.6176 28.5523 19.1699 28 19.1699C27.4477 19.1699 27 19.6176 27 20.1699C27 20.7222 27.4477 21.1699 28 21.1699Z" stroke="#00008F" stroke-width="2" stroke-miterlimit="10"/>
<path d="M67 60.0498C67.5523 60.0498 68 59.6021 68 59.0498C68 58.4975 67.5523 58.0498 67 58.0498C66.4477 58.0498 66 58.4975 66 59.0498C66 59.6021 66.4477 60.0498 67 60.0498Z" stroke="#00008F" stroke-width="2" stroke-miterlimit="10"/>
<path d="M28 60.0498C28.5523 60.0498 29 59.6021 29 59.0498C29 58.4975 28.5523 58.0498 28 58.0498C27.4477 58.0498 27 58.4975 27 59.0498C27 59.6021 27.4477 60.0498 28 60.0498Z" stroke="#00008F" stroke-width="2" stroke-miterlimit="10"/>
</svg>

<svg width="96" height="96" viewBox="0 0 96 96" fill="none" xmlns="http://www.w3.org/2000/svg"><path d="M44.5 65.17h7v17.65h-7V65.17zM37 23.68h10.4a21.667 21.667 0 014.71.47 9.841 9.841 0 013.71 1.6 7.92 7.92 0 012.46 3 10.09 10.09 0 01.9 4.51 10.23 10.23 0 01-.9 4.44 8.63 8.63 0 01-2.48 3.15 10.35 10.35 0 01-3.73 1.84c-1.515.411-3.08.613-4.65.6h-4.93v11.3H37V23.68zm10 14.63c4.54 0 6.807-1.69 6.8-5.07a3.84 3.84 0 00-1.71-3.63 10.23 10.23 0 00-5.1-1h-4.51v9.7H47z" stroke="#00008F" stroke-width="2" stroke-linecap="round" stroke-linejoin="round"/><path d="M67.87 13.17H28.13A6.13 6.13 0 0022 19.3v39.74a6.13 6.13 0 006.13 6.13h39.74A6.13 6.13 0 0074 59.04V19.3a6.13 6.13 0 00-6.13-6.13z" stroke="#00008F" stroke-width="2" stroke-linecap="round" stroke-linejoin="round"/><path d="M67 21.17a1 1 0 100-2 1 1 0 000 2zM28 21.17a1 1 0 100-2 1 1 0 000 2zM67 60.05a1 1 0 100-2 1 1 0 000 2zM28 60.05a1 1 0 100-2 1 1 0 000 2z" stroke="#00008F" stroke-width="2" stroke-miterlimit="10"/></svg>
